X:676
T:Polska
T:efter Alfred Petersson, Nättraby, Blekinge (SvL, Band 18, nr 284)
B:Svenska Låtar Blekinge
O:Nättraby, Blekinge
N:Svenska Låtar, Band 18 nr 284
R:Polska
C:Alfred Petersson
M:3/4
L:1/16
Q:1/4=100
Z:Konverterad till abc-format av  Olle Paulsson 05-01-03
K:A
A2A2 A2A2 c2A2|(Af)ed (cd)Bc c4|A2A2 A2A2 c2A2|(Af)ed (cd)Bc c4|
a2ag a2bg a2af|edcB B2A2 A4::A2f2 A2f2 fagf|a2e2 e2c2 eaec|
A2f2 A2f2 fagf|a2e2 e2c2 eaec|
a2ag a2bg a2af|edcB B2A2 A4:|

(:musicend:)

(:music:)
